Obsidian-SemiLight/actions/24s/address-book-new.svg

<svg viewBox="0 0 24 24" xmlns="http://www.w3.org/2000/svg"><path d="m6 4v1 1h-2v3h2v6h-2v3h2v2h1 13v-1-14-1zm1 1h2v14h-2zm3 0h9v14h-9z" fill="#4d4d4d"/></svg>

<svg xmlns="http://www.w3.org/2000/svg" viewBox="0 0 24 24">
  <defs id="defs3051">
    <style type="text/css" id="current-color-scheme">
      .ColorScheme-Text {
        color:#4d4d4d;
      }
      </style>
  </defs>
 <path style="fill:currentColor;fill-opacity:1;stroke:none" 
     d="M 6 4 L 6 5 L 6 6 L 4 6 L 4 9 L 6 9 L 6 15 L 4 15 L 4 18 L 6 18 L 6 20 L 7 20 L 20 20 L 20 19 L 20 5 L 20 4 L 6 4 z M 7 5 L 9 5 L 9 19 L 7 19 L 7 5 z M 10 5 L 19 5 L 19 19 L 10 19 L 10 5 z "
     class="ColorScheme-Text"
     />
</svg>
